X: 53
T: No_9_Song_of_the_Bear_Dance_(c).krn
N: Derived from No_9_Song_of_the_Bear_Dance_(c).krn
%%abc-version 2.0
%%abcx-abcm2ps-target-version 5.9.1 (29 Sep 2008)
%%abc-creator hum2abc beta
%%abcx-conversion-date 2019/03/15 08:35:01
%%humdrum-veritas 2983815414
%%humdrum-veritas-data 1509571535
%%linebreak <none>
%%barnumbers 0
L: 1/8
M: 2/4
K: Ab clef=bass
[K:clef=bass][M:2/4]C/C/C/C/ B,(B,/A,/) [I:setbarnb 2]| 
F,(F,/E,/) E, z | 
[M:3/4]B,(B,/A,/) A,A,A,2 | 
F,B, A,F,E,2 | 
F,E, E,F, E, z :|]  
[M:2/4]B,/B,/B,/B,/ A,A, | 
F,E,E,2 | 
[M:3/4]CB, A,A,A,2 | 
F,B, A,F,E,2 | 
F,/F,/E, E,F,E,2 |]  
